X: 1
T: the Leprechaun   [Gm]
R: jig, song
Z: 2020 John Chambers <jc:trillian.mit.edu>
M: 6/8
L: 1/8
K: Gdor
d2c |\
"Gm"B2G "Dm"A2F | "Gm"G2F "Dm"D2C | "Gm"DEF G2G | G3- G2D |\
"Gm"G2G B2c | "Dm"d2c f2d | "F"c2A F2A | "Gm"B3- B2A |
"Gm"G2G B2c | "Dm"d2c f2d | "F"c2A F2A | "Gm"B3 d2c |\
"Gm"B2G "Dm"AGF | G2F D2C | "Gm"DEF "Dm"G2F | "Gm"G3- G2z |]
